X: 1
T: Humours of Glendart, The
C: J-25
M: 6/8
Z: Transcribed to abc by Mary Lou Knack
R: jig
K: D
A| "D"BAF AFD| "A7"EDE "D"DFA| BAF AFD| "A7"FED EFA|
   "D"BAF AFD| "A7"EDE "D"DFA| "A7"dcB AFE| "D"FDD D2:|
|:\
A| "D"def d2B| ABA AFA| def def| "A7"efe edB|
   "D"def d2B| ABA AFA| "A7"dcB AFE| "D"FDD D2:|
%%text 9/1/98.  From Sully's Irish Banjo Book.   Also in O'Neill.
